X:0937
M:C
L:1/8
Q:1/4=120
K:D
f>afd e>fed|B<dAF  E/E/E E2 |f>afd e>fed|A>gf>e d/d/d d2 |
f>afd e>fec|B<dA>F E/E/E E>F|D2A>F A>BdA|B<dA>F D/D/D D2|]

